frontend/public/svg/interface/folder-add.svg

<svg width="160" height="141" viewBox="0 0 160 141" fill="none" xmlns="http://www.w3.org/2000/svg">
<g clip-path="url(#clip0)">
<path d="M80.8881 78.16C82.0491 78.16 83.0673 78.1912 84.083 78.1548C89.1048 77.9742 94.1253 77.7266 99.1484 77.611C100.75 77.5733 102.351 77.7221 103.919 78.0548C105.778 78.4557 106.73 79.6181 106.828 81.0879C106.922 82.4855 106.022 83.7701 104.327 84.5252C101.766 85.6662 99.0225 85.9306 96.2728 85.9858C92.1965 86.0684 88.1183 86.0333 84.0408 86.0463C83.1011 86.0495 82.1588 86.0463 81.014 86.0463C80.9237 86.891 80.8004 87.6057 80.7784 88.3205C80.5798 94.6642 80.4156 101.009 80.1943 107.352C80.1541 108.295 79.9853 109.228 79.6926 110.125C79.4765 110.912 79.0144 111.608 78.3739 112.113C77.7334 112.618 76.9474 112.903 76.133 112.928C75.3192 113.04 74.4924 112.87 73.7882 112.448C73.0834 112.026 72.5441 111.376 72.2586 110.606C71.6654 109.022 71.387 107.339 71.4396 105.649C71.6992 99.6862 72.1774 93.7343 72.5655 87.7799C72.5954 87.3309 72.5694 86.8773 72.5694 86.3172C72.1794 86.2321 71.7835 86.1788 71.3857 86.158C65.1331 86.4023 58.8828 86.6869 52.6299 86.9001C51.0277 86.9845 49.421 86.915 47.832 86.6928C45.9947 86.3991 45.018 85.2334 44.9115 83.6993C44.7973 82.0242 45.6651 80.6636 47.6542 80.2835C50.3543 79.8007 53.081 79.4836 55.8196 79.3322C60.4533 79.0216 65.0961 78.8572 69.7353 78.6214C70.6705 78.5739 71.6044 78.4804 72.7206 78.3939C72.8452 77.6525 72.9322 76.9047 72.9802 76.1542C73.0302 71.9846 73.0205 67.8144 73.0893 63.6457C73.1107 62.3207 73.2314 60.9992 73.4514 59.6925C73.5909 59.1167 73.8979 58.5954 74.334 58.1949C74.7701 57.7945 75.3159 57.5326 75.9006 57.443C76.4854 57.3534 77.0837 57.4402 77.6198 57.6918C78.1552 57.9433 78.6043 58.3485 78.91 58.8561C79.3831 59.7779 79.6771 60.7813 79.7763 61.8131C80.1398 66.4382 80.3935 71.0717 80.6908 75.7019C80.7381 76.4368 80.8082 77.1704 80.8881 78.16Z" fill="black"/>
<path d="M136.992 0.381298C139.737 0.68409 142.487 0.938884 145.224 1.29821C154.104 2.46779 158.51 7.35411 158.862 16.3495C159.43 30.8517 159.057 45.3292 158.427 59.8308C157.867 72.754 158.362 85.7202 158.263 98.6662C158.211 105.3 158.227 111.967 157.589 118.558C156.226 132.658 148.196 139.965 134.021 140.481C130.587 140.606 127.142 140.509 123.706 140.505C105.963 140.487 88.2194 140.531 70.477 140.424C55.2828 140.333 40.0876 140.184 24.8989 139.803C20.6929 139.633 16.5158 139.028 12.4346 137.996C6.33416 136.543 2.80823 132.377 1.75429 126.225C1.3995 124.266 1.2298 122.278 1.24743 120.287C1.53752 105.679 1.96131 91.0743 2.2274 76.4661C2.39094 67.3915 2.3819 58.3125 2.35724 49.2359C2.2554 47.4682 2.03183 45.7092 1.68814 43.9723C0.958684 38.8593 2.7674 34.8705 7.63667 33.0563C11.955 31.3523 16.4865 30.2502 21.1043 29.7808C33.6945 28.7912 46.3288 28.2143 58.956 27.7776C66.8213 27.506 74.7057 27.7877 82.5791 27.8189C83.6525 27.8234 84.726 27.8189 85.8532 27.8189C85.8532 24.8156 85.7883 22.1854 85.8708 19.5596C85.9558 16.7975 86.0492 14.0241 86.3679 11.2821C87.0169 5.68236 89.2967 2.98529 94.8526 2.26145C100.888 1.47522 106.998 1.28017 113.081 0.885759C116.607 0.65704 120.141 0.544436 123.671 0.379395L136.992 0.381298ZM96.638 12.7605C96.638 16.7852 96.6036 20.5303 96.6516 24.2743C96.6769 26.2646 96.9592 28.2551 96.9255 30.2421C96.8554 34.3181 95.4977 36.0806 91.5279 37C89.176 37.5989 86.7638 37.9295 84.3379 37.9861C76.4612 37.9802 68.5852 37.7783 60.7096 37.5997C48.0632 37.295 35.41 37.7505 22.8182 38.9639C19.6289 39.3149 16.4701 39.9028 13.3678 40.7228C10.4474 41.4577 10.1443 41.978 10.0391 44.8461C9.958 47.0553 10.008 49.2741 10.0593 51.4872C10.3559 64.2129 10.7647 76.9372 10.9491 89.6649C11.1139 101.065 10.9698 112.472 11.1048 123.87C11.1541 128.044 12.4839 129.462 16.6114 129.924C21.7844 130.503 26.986 131.151 32.1778 131.179C51.7037 131.285 71.2311 131.126 90.7576 131.114C100.407 131.108 110.057 131.208 119.707 131.253C125.253 131.279 130.804 131.473 136.344 131.262C142.536 131.025 145.679 128.444 147.197 122.454C147.907 119.667 148.28 116.805 148.309 113.929C148.359 106.181 148.049 98.4316 148.042 90.6824C148.031 79.8378 148.103 68.9931 148.257 58.1486C148.369 49.736 148.736 41.3261 148.798 32.9136C148.833 27.9357 148.565 22.9511 148.305 17.9758C148.062 13.3456 147.558 12.8953 143.071 12.4814C141.967 12.3794 140.857 12.2503 139.751 12.2516C126.658 12.2685 113.567 12.3035 100.477 12.3576C99.1904 12.4247 97.9093 12.5592 96.638 12.7605Z" fill="black"/>
</g>
<defs>
<clipPath id="clip0">
<rect width="159" height="141" fill="white" transform="translate(0.777344)"/>
</clipPath>
</defs>
</svg>

<svg xmlns="http://www.w3.org/2000/svg" width="160" height="141" fill="none" viewBox="0 0 160 141"><g fill="#000" clip-path="url(#a)"><path d="M80.888 78.16c1.161 0 2.18.031 3.195-.005 5.022-.18 10.042-.428 15.065-.544a20.6 20.6 0 0 1 4.771.444c1.859.4 2.811 1.563 2.909 3.033.094 1.398-.806 2.682-2.501 3.437-2.561 1.141-5.305 1.406-8.054 1.46-4.076.083-8.155.048-12.232.061-.94.003-1.882 0-3.027 0-.09.845-.214 1.56-.236 2.274-.198 6.344-.362 12.689-.584 19.032a10.4 10.4 0 0 1-.501 2.773 3.82 3.82 0 0 1-3.56 2.803 3.605 3.605 0 0 1-3.874-2.322 13 13 0 0 1-.82-4.957c.26-5.963.738-11.915 1.127-17.87.03-.448.003-.902.003-1.462a7.4 7.4 0 0 0-1.183-.159c-6.253.244-12.503.529-18.756.742a25 25 0 0 1-4.798-.207c-1.837-.294-2.814-1.46-2.92-2.994-.115-1.675.753-3.035 2.742-3.415 2.7-.483 5.427-.8 8.166-.952 4.633-.31 9.276-.475 13.915-.71.936-.048 1.87-.142 2.986-.228q.186-1.114.26-2.24c.05-4.17.04-8.34.108-12.508.022-1.325.142-2.647.362-3.953a2.99 2.99 0 0 1 2.45-2.25 2.98 2.98 0 0 1 3.009 1.413 8.2 8.2 0 0 1 .866 2.957c.364 4.625.618 9.259.915 13.889.047.735.117 1.468.197 2.458"/><path d="M136.992.381c2.745.303 5.495.558 8.232.917 8.88 1.17 13.286 6.056 13.638 15.051.568 14.503.195 28.98-.435 43.482-.56 12.923-.065 25.89-.164 38.835-.052 6.634-.036 13.301-.674 19.892-1.363 14.1-9.393 21.407-23.568 21.923-3.434.125-6.879.028-10.315.024-17.743-.018-35.487.026-53.229-.081-15.194-.091-30.39-.24-45.578-.621a61 61 0 0 1-12.464-1.807c-6.1-1.453-9.627-5.619-10.68-11.771a31.7 31.7 0 0 1-.508-5.938c.29-14.608.714-29.213.98-43.82.164-9.076.155-18.154.13-27.231a38.5 38.5 0 0 0-.669-5.264c-.73-5.113 1.08-9.102 5.949-10.916a50.6 50.6 0 0 1 13.467-3.275c12.59-.99 25.225-1.567 37.852-2.003 7.865-.272 15.75.01 23.623.04 1.074.005 2.147 0 3.274 0 0-3.002-.065-5.633.018-8.258.085-2.762.178-5.536.497-8.278.649-5.6 2.929-8.297 8.485-9.02 6.035-.787 12.145-.982 18.228-1.376 3.526-.229 7.06-.342 10.59-.507zm-40.354 12.38c0 4.024-.034 7.77.014 11.513.025 1.99.307 3.981.273 5.968-.07 4.076-1.427 5.839-5.397 6.758-2.352.599-4.764.93-7.19.986-7.877-.006-15.753-.208-23.628-.386-12.647-.305-25.3.15-37.892 1.364a64.5 64.5 0 0 0-9.45 1.759c-2.92.735-3.224 1.255-3.329 4.123-.081 2.21-.031 4.428.02 6.641.297 12.726.706 25.45.89 38.178.165 11.4.02 22.807.156 34.205.05 4.174 1.379 5.592 5.506 6.054 5.173.579 10.375 1.227 15.567 1.255 19.526.106 39.053-.053 58.58-.065 9.649-.006 19.299.094 28.949.139 5.546.026 11.097.22 16.637.009 6.192-.237 9.335-2.818 10.853-8.808a36 36 0 0 0 1.112-8.525c.05-7.748-.26-15.497-.267-23.247q-.016-16.266.215-32.533c.112-8.413.479-16.823.541-25.235.035-4.978-.233-9.963-.493-14.938-.243-4.63-.747-5.08-5.234-5.495-1.104-.102-2.214-.23-3.32-.23q-19.64.027-39.274.107a37 37 0 0 0-3.839.402"/></g><defs><clipPath id="a"><path fill="#fff" d="M.777 0h159v141h-159z"/></clipPath></defs></svg>
